X:1
T:James Gibb editions
T:Nunc dimittis, SWV 352 - Schütz
T:#
%%score 1 2 3 4
L:1/8
Q:1/4=90
M:4/4
K:C
V:1 treble nm="Violin I" snm="Vn I"
V:2 treble nm="Violin II" snm="Vn II"
V:3 bass nm="Bass" snm="B"
V:4 bass nm="Continuo"
V:1
 z8 | z8 | z8 | z8 | z8 | z8 |[M:4/4] z8 | z8 | z8 | z8 | z8 | z8 | z8 | z8 || %14
[K:F][M:4/4][K:treble] z8 | z8 | z8 | g2 f2 e2 d2 | c2 B2 A4 | a2 g2 ^f2 e2 | d2 c2 Bc/d/ _e2- | %21
 e2 d2 c4 | B/F/G/A/ B/c/d/e/ f2 z2 | z/ d/f/e/ d/B/c/d/ G2 z2 | z/ G/A/=B/ c/d/e/f/ g2 z2 | %25
 z/ e/g/f/ e/c/d/e/ A2 z2 | z/ A/^B/c/ d/e/^f/g/ a/^F/G/A/ =B/c/d/e/ | ^f/g/a/g/ f/d/e/f/ g<f g<e | %28
 ^f>g f>g f3/2g/4f/4 g/4f/4g/4f/4 g/4f/4e/4f/4 | g8 || z2 g2 e2 ^f2 | g2 d2 g=f e2 | d2 z2 z4 | %33
 z2 a2 f2 g2 | a2 e2 ag f2 | e2 f2 e4 | d4 d>c c>B | B>A A>G g>f f>_e | _e>d d>c c>B B>A | %39
 A>G G4 ^F2 | G8 | z8 | z2 d2 c>B A/B/c/A/ | =B2 z2 z4 | d_BBd c>B A=B/c/ | =B2 z2 z4 | %46
 z2 df _B_e/d/ cd/e/ | d2 z2 z2 f2- | f d2 B2 G c3/2B/4c/4 | d2 z2 dddc | BB A2 z4 | BBBA GG F2 | %52
 z4 z2 z c | d3/2_e/4d/4 c3/2d/4c/4 BA G2 | F2 z2 z2 z d | _e3/2f/4e/4 d3/2e/4d/4 cB A2 | %56
 G2 z2 BBBA | GG F2 z4 | dddc BB A2 | z2 z d g3/2a/4g/4 f3/2g/4f/4 | _e3/2f/4e/4 d3/2e/4d/4 cAdG | %61
 c2 z c f3/2g/4f/4 _e3/2f/4e/4 | d3/2e/4d/4 c3/2d/4c/4 B3/2c/4B/4 A3/2B/4c/4 | %63
 d3/2c/4d/4 e3/2d/4e/4 ^f2 g2- | g2 ^fe f4 | g8 ||[M:3/2] z12 | z12 | z12 | z12 | z4 d4 g4 | %71
 e2 e2 a4 f2 f2 | b6 a2 g4 ||[M:4/4] x8 |[M:4/4] e8 | z2 cf d2 dg | ecde f4- | f4 e4 | f8 | _e8 | %80
 d8 | c4 z2 Gc | A2 AF F2 fd | d2 ge e2 ea | f2 fb g2 gc' | afga b4- | b4 a4 | b8 || %88
[M:3/2] z4 B4 _e4 | c2 c2 f4 d2 d2 | g6 a2 b4 ||[M:4/4] x8 |[M:4/4] a4 z2 ea | f2 fb g2 =Be | %94
 c2 cf d2 dg | ecde f4- | f4 e4 | f4 af f2 | bg g2 c'a a2 | b8 | a8- | a8 | !fermata!g16 |] %103
V:2
 z8 | z8 | z8 | z8 | z8 | z8 |[M:4/4] z8 | z8 | z8 | z8 | z8 | z8 | z8 | z8 || %14
[K:F][M:4/4][K:treble] z8 | z8 | z4 g2 f2 | _e2 d2 c2 B2 | A4 a2 g2 | f2 e2 d2 c2 | B2 A2 GABG | %21
 A2 B4 A2 | B4 z/ F/G/A/ B/c/d/e/ | f2 z2 z/ d/f/e/ d/=B/c/d/ | G2 z2 z/ G/A/=B/ c/d/e/^f/ | %25
 g2 z2 z/ e/g/f/ e/^c/d/e/ | A2 z2 z/ A/=B/_c/ d/e/^f/g/ | a/d/^f/e/ d/=B/c/d/ G>A _B>c | %28
 A>=B A>B A3/2B/4A/4 B/4A/4B/4A/4 B/4A/4G/4A/4 | =B8 || z8 | z2 d2 =B2 ^c2 | d2 A2 d=c _B2 | %33
 A4 z4 | z2 c2 fe d2 | ^c2 d4 c2 | d4 f>e e>d | d>c c>B B>A A>G | g>f f>_e e>d d>c | c>B B>A A4 | %40
 G8 | z8 | z2 G2 E2 ^F2 | G2 z2 z4 | GGGF E^F/G/ FF | G2 z2 z4 | z2 B2 G2 A2 | B2 z2 z4 | %48
 BBBB G2 AA | B2 z2 BBAA | GG ^F2 z4 | GG=FF _EE D2 | z4 z2 z A | B3/2A/4B/4 cC D F2 E | %54
 F2 z2 z2 z =B | c3/2=B/4c/4 dD E G2 ^F | G2 z2 GG=FF | _EE D2 z4 | BBAA GG ^F2 | z8 | %60
 z2 z G c3/2d/4c/4 B3/2c/4B/4 | A3/2B/4A/4 G3/2A/4G/4 FD GC | F2 z A d3/2_e/4d/4 c3/2d/4c/4 | %63
 B3/2c/4B/4 AG d>c B>c | ABcB A4 | G8 ||[M:3/2] z12 | z12 | z12 | z12 | z4 =B4 e4 | %71
 c2 c2 f4 d2 d2 | g6 f2 e4 ||[M:4/4] x8 |[M:4/4] ^c8 | z8 | z8 | z8 | z2 Fc A2 Ad | =BGAB c4- | %80
 c4 =B4 | c8 | cA A2 AF F2 | BG G2 cA A2 | Ad B2 B_e c2 | d8 | c8 | B8 ||[M:3/2] z4 G4 c4 | %89
 A2 A2 d4 B2 B2 | b6 a2 g4 ||[M:4/4] x8 |[M:4/4] c4 z4 | cf d2 dg e2 | ea f2 fb g2 | a8 | g8 | %97
 f4 cf d2 | dg e2 ea f2 | ^fdef g4- | g4 ^f2 e2 | ^f4 f4 | !fermata!g16 |] %103
V:3
[K:F]"^Luke 2:29-31""^Nunc dimittis, SWV 352""^Heinrich Schütz\n(1585-1672)" G,4 z2 G,2 | %1
w: Herr, nun|
 D,2 D,D, D,2 E,2 | ^F,4- G,2 G,2 | _E,4 B,,4 | (F,,G,,A,,B,, C,D,_E,=F, | %5
w: läs- sest du dei- nen|Die- ner im|Frie- de|fah\- * * * * * * *|
"^i" G,D,B,,G,, D,_E,F,G, | A,E,^C,A,, D,A,,F,,D,, | A,,8) | D,,4 z2 _E,2 | B,,2 B,,B,, B,,2 C,2 | %10
w: |||ren, nun|läs- sest du dei- nen|
 D,4 G,,2 G,2 | B,4 _E,4 | (B,,C,D,E, F,G,A,B, | CG,_E,C, G,A,B,C || DA,F,D, G,D,B,,G,, | %15
w: Die- ner im|Frie- de|fah\- * * * * * * *|||
 D,C,/B,,/ A,,/G,,/^F,,/E,,/ D,,4) | G,,4 z4 | (_E,4 =E,4) | F,4- z4 | (F,4 ^F,4) | G,4 z2 _E,2 | %21
w: |ren,|wie *|du,|wie *|du ge-|
 F,8 | B,,4 z4 | (B,,4 =B,,4) | C,4 z4 | (C,4 ^C,4) | D,8 | z4 C,4 | D,8 | G,,8 || z8 | z8 | z8 | %33
w: sagt|hast,|wie *|du,|wie *|du|ge-|sagt|hast.||||
 z8 | z8 | z8 | z8 | z8 | z8 | z8 | z8 | z2 G,2 E,2 ^F,2 | G,G, z2 z4 | G,G,G,G, E,2 ^F,F, | %44
w: ||||||||Denn mei- ne|Au- gen|ha- ben dei- nen Hei- land ge-|
 G,G, z2 z4 | z2 B,2 G,2 A,2 | B,B, z2 z4 | B,B,B,B, G,2 A,A, | B,B, z2 z4 | B,B,F,F, G,G, D,2 | %50
w: se- hen,|denn mei- ne|Au- gen|ha- ben dei- nen Hei- land ge-|se- hen,|wel- chen du be- rei- tet hast,|
 z4 G,G,D,D, | _E,E, B,,2 z2 z B,, | (_E,3/2F,/4E,/4 D,3/2E,/4D,/4 C,)B,, F,2 | B,,2 z2 z2 z C, | %54
w: wel- chen du be-|rei- tet hast für|al\- * * * * * * len Völ-|lkern, für|
 (F,3/2G,/4F,/4 _E,3/2F,/4E,/4) D,C, G,2 | C,2 z2 z4 | G,G,D,D, _E,E, B,,2 | z4 B,B,F,F, | %58
w: al\- * * * * * * Ien Völ-|kern,|wel- chen du be- rei- tet hast,|wel- chen du be-|
 G,G, D,2 z2 z D, | (G,3/2A,/4G,/4 F,3/2G,/4F,/4 _E,3/2F,/4E,/4 D,3/2E,/4D,/4 | %60
w: rei- tet hast für|al\- * * * * * * * * * * *|
 C,3/2D,/4C,/4 B,,3/2C,/4B,,/4 A,,3/2B,,/4A,,/4 G,,3/2A,,/4G,,/4 | %61
w: |
 F,3/2G,/4F,/4 _E,3/2F,/4E,/4 D,3/2E,/4D,/4 C,3/2D,/4C,/4 | %62
w: |
 B,,3/2C,/4B,,/4 A,,3/2B,,/4A,,/4 G,,3/2F,,/4G,,/4 A,,3/2G,,/4A,,/4 | %63
w: |
 B,,3/2A,,/4B,,/4 C,3/2B,,/4C,/4 D,2) _E,2- | (C,4 D,4) | G,,8 ||[M:3/2] G,,4 C,4 A,,2 A,,2 | %67
w: * * * * * * * len|Völ\- *|kern,|ein Licht zu er-|
 D,4 B,,2 B,,2 (E,4- | E,2 D,2 C,8) | D,8 z4 | D,4 G,4 E,2 E,2 | A,4 F,2 F,2 (B,4- | %72
w: leuch- ten die Hei\-||den,|ein Licht zu er-|leuch- ten die Hei\-|
 B,2 A,2 G,8) ||[M:4/4] x8 |[M:4/4] A,8 | E,A, F,2 F,B, G,2 | A,8 | G,8 | F,8 | z8 | z8 | %81
w: ||den,|und zum Preis dei- nes Volks|I-|sra-|el,|||
 z2 C,F, E,2 E,A, | F,4 z2 F,,B,, | G,,2 G,,C, A,,2 z2 | D,B,, B,,2 _E,C, C,2 | F,8- | F,4 F,4 | %87
w: und zum Preis dei- nes|Volks, und zum|Preis dei- nes Volks,|und zum Preis dei- nes Volks|I\-|* sra-|
 B,,8 ||[M:3/2] B,,4 _E,4 C,2 C,2 | F,4 D,2 D,2 (G,4- | G,2 F,2 E,8) ||[M:4/4] x8 | %92
w: el,|ein Licht zu er-|leuch- ten die Hei\-|||
[M:4/4] F,4 z2 A,F, | F,2 B,G, G,2 G,,C, | A,,2 A,,D, B,,2 z2 | C,8- | C,4 C,4 | F,4 z2 F,B, | %98
w: den, und zum|Preis dei- nes Volks, und zum|Preis dei- nes Volks|I\-|* sra-|el, und zum|
 G,2 G,C A,2 z2 | D,8 | D,8- | D,8 | !fermata!G,,16 |] %103
w: Preis dei- nes Volks|I-|sra\-||el.|
V:4
[K:F] G,6 G,2 | D,6 E,2 | ^F,4 G,4 | _E,4 B,,4 | F,,4 C,4 | G,,4 D,4 | A,,4 D,,4 | A,,8 | %8
w: ||||||||
w: ||||||||
 D,,4 _E,4 | B,,6 C,2 | D,4 G,,4 | B,4 _E,4 | B,,4 F,4- | C,4 G,4 || D,4 G,,4 | x2- x4 x2 | G,,8 | %17
w: |||||||||
w: |||||||||
 (_E,4 =E,4) | F,8 | (F,4 ^F,4) | G,6 _E,2 | x2- x2 x2 x2 | B,,8 | (B,,4 =B,,4) | C,8 | %25
w: * 6||* 6||7||||
w: ||||3||||
 (C,4 ^C,4) | D,8 | z4 C,4 | D,8 | G,,8 || G,,4 C,2 D,2 | G,,2 B,,2 G,,2 A,,2 | D,,2 D,2 B,,2 C,2 | %33
w: ||||||||
w: ||||||||
 D,2 A,,2 D,C, B,,2 | A,,2 A,2 F,2 G,2 | A,2 D,2 x2- x2 | D,2 G,2 D2 A,2 | B,2 F,2 G,2 D,2 | %38
w: * * * * 6||* * 4|||
w: |||||
 _E,2 B,,2 C,2 G,,2 | A,,2 B,,C, x2- x2 | G,,8 | G,4 E,2 ^F,2 | G,2 G,,2 C,A,, D,2 | %43
w: |* 6 * 4||||
w: |||||
 G,,2 G,2 E,2 ^F,2 | G,2 G,,2 C,2 D,2 | G,,2 B,2 G,2 A,2 | B,2 B,,2 _E, C, F,2 | B,,2 B,2 G,2 A,2 | %48
w: |||||
w: |||||
 B,2 B,,2 _E,2 F,2 | B,2 F,2 G,2 ^F,2 | G,2 D,2 G,2 D,2 | _E,2 D,2 E,2 B,,2 | _E,2 D,2 C,B,, F,2 | %53
w: |||* 6 * *||
w: |||||
 B,2 A,2 G,F, C,2 | F,2 _E,2 D,C, G,2 | C2 B,2 A,G, D,2 | G,2 D,2 _E,2 D,2 | _E,2 B,,2 B,2 F,2 | %58
w: |* * * * s||* * * 6||
w: |||||
 G,2 ^F,2"^1" G,2 D,2 | G,2 F,2 _E,2 D,2 | C,2 B,,2 A,,2 G,,2 |"^1" F,2 _E,2 D,2 C,2 | %62
w: ||||
w: ||||
 B,,2 A,,2 G,,2 A,,2 | B,,2 x-x D,2 _E,2 | C,4 D,4 | G,,8 ||[M:3/2] G,,4 C,4 A,,2 A,,2 | %67
w: |* 6 * *||||
w: |||||
 D,4 B,,2 B,,2 _E,4- | E,2 D,2 C,8 | D,8 z4 | D,4 G,4 E,2 E,2 | A,4 F,2 F,2 B,4 | B,2 A,2 G,8 || %73
w: |* 6 *||||* 6 6|
w: ||||||
[M:4/4] x8 |[M:4/4] A,8 | x2- x2 x2- x2 | x4- x4 | x4- x4 | F,,8 | x4- x4 | x4- x4 | %81
w: ||5 5|6|4||6|4|
w: |||3|||||
 C,2 C,F, E,2 E,A, | F,2 F,,4 F,,B,, | G,,2 G,,C, A,,4 | D,B,, B,,2 _E,C, C,2 | F,4- F,4 | x4- x4 | %87
w: * * * 6 * *||||6 6|4|
w: ||||3 4||
 B,,8 ||[M:3/2] B,,4 _E,4 C,2 C,2 | F,4 D,2 D,2 G,4- | G,2 F,2 E,8 ||[M:4/4] x8 |[M:4/4] F,6 A,F, | %93
w: ||||||
w: ||||||
 F,2 B,G, G,2 G,,C, | A,,2 A,,D, x2- x2 | x4- x4 | x4- x4 | F,,6 F,,B,, | G,,2 G,,C, x2- x2 | %99
w: * * * * 6 *|* 6 * 5|6|4|* 6 *|* 6 * 5|
w: ||3||||
 x4- x4 | D,8- | D,8 | !fermata!G,,16 |] %103
w: 6|4|||
w: ||||

